X: 20401
T: DOWNFALL OF PARIS
C:
N: AKA the Fall of Paris, Mississippi Sawyer, Hae You Ony More Ado, ...
%R: march, reel
B: Elias Howe "The Musician's Companion" 1843 p.40 #1
S: http://imslp.org/wiki/The_Musician's_Companion_(Howe,_Elias)
Z: 2015 John Chambers <jc:trillian.mit.edu>
M: 2/4
L: 1/16
K: D
% - - - - - - - - - - - - - - - - - - - - - - - - -
[|\
d2de d2de | d2de gfed | e2ef e2ef | e2ef agfe |\
f2fg f2fg | f2fg bagf | e2ed e2ed | efge cABc |
d2de d2de | d2de gfed | e2ef e2ef | e2ef agfe |\
f2fg a3g | f2fg a3g | f2fg e2ef | d2d2 d4 |]
[|\
a6 f2 | b2a2g2f2 | g2gf g2gf | g2gf g4 |\
g6 e2 | a2g2f2e2 | f2fe f2fe | f2fe f4 |
d2de d2de | d2de gfed | e2ef e2ef | e2ef agfe |\
f2fg a3g | f2fg a3g | f2fg e2ef | d2d2 d4 |]
[|\
ABcd cBAG |FGAB AGFE | d2d2e2e2 | f2f2 e4 |\
ABcd cBAG | FGAB AGFE | d2e2f2e2 | d2d2 d4 |
c2d2e2f2 | g2f2e2d2 | c2d2e2f2 | g2f2 e4 |\
ABcd cBAG | FGAB AGFE | d2e2f2e2 | d2c2 d4 |]
% - - - - - - - - - - - - - - - - - - - - - - - - -

%%sep 1 1 500

